packages/ffe-icons/icons/filled/md/background_grid_small.svg

<svg xmlns="http://www.w3.org/2000/svg" height="24" viewBox="0 -960 960 960" width="24"><path d="M212.309-140.001h52.693v-125.001H140.001v52.693q0 29.827 21.241 51.067 21.24 21.241 51.067 21.241Zm112.691 0h125.001v-125.001H325v125.001Zm184.999 0H635v-125.001H509.999v125.001Zm184.999 0h52.693q29.827 0 51.067-21.241 21.241-21.24 21.241-51.067v-52.693H694.998v125.001ZM140.001-694.998h125.001v-125.001h-52.693q-29.827 0-51.067 21.241-21.241 21.24-21.241 51.067v52.693Zm0 184.999h125.001V-635H140.001v125.001Zm0 184.999h125.001v-125.001H140.001V-325ZM325-694.998h125.001v-125.001H325v125.001Zm0 184.999h125.001V-635H325v125.001ZM325-325h125.001v-125.001H325V-325Zm184.999-369.998H635v-125.001H509.999v125.001Zm0 184.999H635V-635H509.999v125.001Zm0 184.999H635v-125.001H509.999V-325Zm184.999-369.998h125.001v-52.693q0-29.827-21.241-51.067-21.24-21.241-51.067-21.241h-52.693v125.001Zm0 184.999h125.001V-635H694.998v125.001Zm0 184.999h125.001v-125.001H694.998V-325Z"/></svg>

<svg xmlns="http://www.w3.org/2000/svg" height="24" viewBox="0 -960 960 960" width="24"><path d="M212.31-140H265v-125H140v52.69q0 29.83 21.24 51.07Q182.48-140 212.31-140ZM325-140h125v-125H325v125Zm185 0h125v-125H510v125Zm185 0h52.69q29.83 0 51.07-21.24Q820-182.48 820-212.31V-265H695v125ZM140-695h125v-125h-52.69q-29.83 0-51.07 21.24Q140-777.52 140-747.69V-695Zm0 185h125v-125H140v125Zm0 185h125v-125H140v125Zm185-370h125v-125H325v125Zm0 185h125v-125H325v125Zm0 185h125v-125H325v125Zm185-370h125v-125H510v125Zm0 185h125v-125H510v125Zm0 185h125v-125H510v125Zm185-370h125v-52.69q0-29.83-21.24-51.07Q777.52-820 747.69-820H695v125Zm0 185h125v-125H695v125Zm0 185h125v-125H695v125Z"/></svg>
